Numix-Light/16/status/teamviewer-indicator-away.svg

<?xml version="1.0" encoding="UTF-8" standalone="no"?>
<svg
   xmlns:dc="http://purl.org/dc/elements/1.1/"
   xmlns:cc="http://creativecommons.org/ns#"
   xmlns:rdf="http://www.w3.org/1999/02/22-rdf-syntax-ns#"
   xmlns:svg="http://www.w3.org/2000/svg"
   xmlns="http://www.w3.org/2000/svg"
   xmlns:sodipodi="http://sodipodi.sourceforge.net/DTD/sodipodi-0.dtd"
   xmlns:inkscape="http://www.inkscape.org/namespaces/inkscape"
   width="16"
   viewBox="0 0 4.5155556 4.5155556"
   height="16"
   id="svg2"
   version="1.1"
   inkscape:version="0.91 r"
   sodipodi:docname="teamviewer-indicator-away.svg">
  <metadata
     id="metadata12">
    <rdf:RDF>
      <cc:Work
         rdf:about="">
        <dc:format>image/svg+xml</dc:format>
        <dc:type
           rdf:resource="http://purl.org/dc/dcmitype/StillImage" />
        <dc:title />
      </cc:Work>
    </rdf:RDF>
  </metadata>
  <sodipodi:namedview
     pagecolor="#ffffff"
     bordercolor="#666666"
     borderopacity="1"
     objecttolerance="10"
     gridtolerance="10"
     guidetolerance="10"
     inkscape:pageopacity="0"
     inkscape:pageshadow="2"
     inkscape:window-width="1920"
     inkscape:window-height="1056"
     id="namedview10"
     showgrid="true"
     inkscape:zoom="22.627418"
     inkscape:cx="15.068331"
     inkscape:cy="0.91286379"
     inkscape:window-x="0"
     inkscape:window-y="24"
     inkscape:window-maximized="1"
     inkscape:current-layer="svg2">
    <inkscape:grid
       type="xygrid"
       id="grid3815" />
  </sodipodi:namedview>
  <defs
     id="defs4" />
  <g
     id="g4142"
     transform="matrix(0.28222222,0,0,0.28222222,-5.4539361,-3.814899)">
    <path
       id="path22"
       d="m 31.531332,23.310296 1.414063,1.414062 -0.7923,0.792502 3.172269,0 0,2 -3.172269,0 0.7923,0.793436 -1.414063,1.414062 -3.206362,-3.207498 z"
       style="opacity:1;fill:#353535;fill-opacity:1;fill-rule:nonzero;stroke:none"
       inkscape:connector-curvature="0"
       sodipodi:nodetypes="cccccccccc" />
    <g
       transform="matrix(1.25,0,0,-1.25,-129.20625,298.11625)"
       id="g48" />
  </g>
  <g
     transform="matrix(0.28222222,0,0,0.28222222,-3.7700037,-4.0768231)"
     id="g4146"
     style="stroke:#000000;stroke-width:3;stroke-miterlimit:4;stroke-dasharray:none;stroke-opacity:1">
    <g
       id="g4150"
       transform="matrix(1.25,0,0,-1.25,-129.20625,298.11625)"
       style="stroke:#000000;stroke-width:2.4000001;stroke-miterlimit:4;stroke-dasharray:none;stroke-opacity:1" />
  </g>
  <g
     id="g4147">
    <path
       style="color:#000000;font-style:normal;font-variant:normal;font-weight:normal;font-stretch:normal;font-size:medium;line-height:normal;font-family:sans-serif;text-indent:0;text-align:start;text-decoration:none;text-decoration-line:none;text-decoration-style:solid;text-decoration-color:#000000;letter-spacing:normal;word-spacing:normal;text-transform:none;direction:ltr;block-progression:tb;writing-mode:lr-tb;baseline-shift:baseline;text-anchor:start;white-space:normal;clip-rule:nonzero;display:inline;overflow:visible;visibility:visible;opacity:1;isolation:auto;mix-blend-mode:normal;color-interpolation:sRGB;color-interpolation-filters:linearRGB;solid-color:#000000;solid-opacity:1;fill:#353535;fill-opacity:1;fill-rule:nonzero;stroke:none;stroke-width:0.56444442;stroke-linecap:butt;stroke-linejoin:round;stroke-miterlimit:4;stroke-dasharray:none;stroke-dashoffset:0;stroke-opacity:1;color-rendering:auto;image-rendering:auto;shape-rendering:auto;text-rendering:auto;enable-background:accumulate"
       d="M 8 0 C 3.5935668 0 0 3.5935668 0 8 C 0 12.406433 3.5935668 16 8 16 C 8.7833285 16 9.5395223 15.881434 10.255859 15.669922 L 8.5566406 13.970703 C 8.3731012 13.987445 8.1880696 14 8 14 C 4.674447 14 2 11.325553 2 8 C 2 4.674447 4.674447 2 8 2 C 11.325553 2 14 4.674447 14 8 C 14 8.6553041 13.893389 9.2837821 13.701172 9.8730469 L 14.828125 11 L 15.410156 11 C 15.78769 10.07243 16 9.0604851 16 8 C 16 3.5935668 12.406433 0 8 0 z "
       transform="scale(0.2822222,0.2822222)"
       id="path4134-7" />
    <path
       sodipodi:nodetypes="ccccccccccc"
       inkscape:connector-curvature="0"
       id="path4136-7"
       d="m 0.84666659,2.2577777 0.84666671,-0.5644444 0,0.2822221 1.1288888,0 0,-0.2822222 0.8466666,0.5644444 -0.8466666,0.5644445 0,-0.2822222 -1.1288888,0 0,0.2822221 z"
       style="fill:#353535;fill-opacity:1;fill-rule:evenodd;stroke:none;stroke-width:0.28222221px;stroke-linecap:butt;stroke-linejoin:miter;stroke-opacity:1" />
  </g>
  <g
     transform="matrix(0.28222222,0,0,0.28222222,-5.4539361,-3.814899)"
     id="g4151"
     style="stroke:#000000;stroke-opacity:1;stroke-width:1.99999989;stroke-miterlimit:4;stroke-dasharray:none">
    <g
       id="g4155"
       transform="matrix(1.25,0,0,-1.25,-129.20625,298.11625)"
       style="stroke:#000000;stroke-opacity:1;stroke-width:1.59999991;stroke-miterlimit:4;stroke-dasharray:none" />
  </g>
</svg>

<svg xmlns="http://www.w3.org/2000/svg" width="16" viewBox="0 0 4.5155556 4.5155556" height="16">
 <g transform="matrix(0.28222222,0,0,0.28222222,-5.4539361,-3.814899)">
  <path d="m 31.531 23.31 1.414 1.414 -0.792 0.793 3.172 0 0 2 -3.172 0 0.792 0.793 -1.414 1.414 -3.206 -3.207 z" style="fill:#353535;opacity:1;fill-opacity:1;stroke:none;fill-rule:nonzero"/>
 </g>
 <g>
  <path d="m 8 0 c -4.406 0 -8 3.594 -8 8 c 0 4.406 3.594 8 8 8 c 0.783 0 1.54 -0.119 2.256 -0.33 l -1.699 -1.699 c -0.184 0.017 -0.369 0.029 -0.557 0.029 c -3.326 0 -6 -2.674 -6 -6 c 0 -3.326 2.674 -6 6 -6 c 3.326 0 6 2.674 6 6 c 0 0.655 -0.107 1.284 -0.299 1.873 l 1.127 1.127 l 0.582 0 c 0.378 -0.928 0.59 -1.94 0.59 -3 c 0 -4.406 -3.594 -8 -8 -8 z" transform="scale(0.2822222,0.2822222)" mix-blend-mode="normal" isolation="auto" white-space="normal" solid-opacity="1" solid-color="#000000" style="visibility:visible;shape-rendering:auto;color-interpolation-filters:linearRGB;fill:#353535;opacity:1;image-rendering:auto;fill-opacity:1;stroke:none;display:inline;color:#000;fill-rule:nonzero;color-rendering:auto;color-interpolation:sRGB"/>
  <path d="m 0.847 2.258 0.847 -0.564 0 0.282 1.129 0 0 -0.282 0.847 0.564 -0.847 0.564 0 -0.282 -1.129 0 0 0.282 z" style="fill:#353535;fill-opacity:1;stroke:none;fill-rule:evenodd"/>
 </g>
</svg>
